public/icons/tokens/pools/bpt.svg

<svg width="19" height="19" viewBox="0 0 19 19" fill="none" xmlns="http://www.w3.org/2000/svg">
  <rect x="0.749023" width="18.251" height="18.251" rx="9.12548" fill="black"/>
  <path fill-rule="evenodd" clip-rule="evenodd" d="M12.1624 10.0437C14.046 10.3198 15.3601 10.9443 15.3601 11.6704C15.3601 12.6524 12.9567 13.4485 9.99202 13.4485C7.0273 13.4485 4.6239 12.6527 4.6239 11.6704C4.6239 10.9442 5.93808 10.3198 7.82159 10.0437C8.53662 10.1828 9.26359 10.2513 9.99202 10.248C10.7038 10.2509 11.4142 10.1858 12.1136 10.0535L12.1624 10.0437Z" fill="white"/>
  <path fill-rule="evenodd" clip-rule="evenodd" d="M11.3532 7.0755C13.0629 7.26383 14.2957 7.79698 14.2957 8.4253C14.2957 9.21087 12.3688 9.84772 9.99177 9.84772C7.61477 9.84772 5.68774 9.21087 5.68774 8.4253C5.68774 7.79698 6.92039 7.26383 8.63004 7.0755C9.0804 7.14666 9.53571 7.18182 9.99165 7.18065C10.4327 7.18167 10.8731 7.14886 11.3091 7.08251L11.3532 7.0755Z" fill="white"/>
  <path d="M9.99251 6.86517C11.7558 6.86517 13.1852 6.38755 13.1852 5.79837C13.1852 5.20919 11.7558 4.73157 9.99251 4.73157C8.22923 4.73157 6.7998 5.20919 6.7998 5.79837C6.7998 6.38755 8.22923 6.86517 9.99251 6.86517Z" fill="white"/>
</svg>

<svg width="19" height="19" fill="none" xmlns="http://www.w3.org/2000/svg"><rect x=".749" width="18.251" height="18.251" rx="9.125" fill="#000"/><path fill-rule="evenodd" clip-rule="evenodd" d="M12.162 10.044c1.884.276 3.198.9 3.198 1.626 0 .982-2.403 1.778-5.368 1.778-2.965 0-5.368-.795-5.368-1.778 0-.726 1.314-1.35 3.198-1.626.715.139 1.442.207 2.17.204a11.17 11.17 0 0 0 2.122-.194l.048-.01ZM11.353 7.075c1.71.189 2.943.722 2.943 1.35 0 .786-1.927 1.423-4.304 1.423-2.377 0-4.304-.637-4.304-1.423 0-.628 1.232-1.161 2.942-1.35.45.072.906.107 1.362.106.44 0 .881-.032 1.317-.098l.044-.008Z" fill="#fff"/><path d="M9.993 6.865c1.763 0 3.192-.477 3.192-1.067 0-.589-1.43-1.066-3.192-1.066-1.764 0-3.193.477-3.193 1.066 0 .59 1.43 1.067 3.193 1.067Z" fill="#fff"/></svg>
